public/svg/wc.svg

<svg width="20" height="20" viewBox="0 0 20 20" fill="none" xmlns="http://www.w3.org/2000/svg">
<g clip-path="url(#clip0_45_574)">
<path d="M15 2.5C16.2116 2.5 17.0433 3.52917 17.525 4.57083C18.0008 5.60417 18.29 6.9525 18.3291 8.41167L18.3333 8.75V16.6667C18.3334 16.779 18.3108 16.8901 18.2668 16.9935C18.2229 17.0968 18.1585 17.1902 18.0776 17.268C17.9966 17.3459 17.9008 17.4065 17.7958 17.4464C17.6908 17.4863 17.5788 17.5045 17.4666 17.5L17.3633 17.4883L15 17.095L12.6366 17.4883C12.5366 17.505 12.4344 17.5033 12.335 17.4833L12.2366 17.4575L9.99996 16.7117L7.76329 17.4575C7.64597 17.4966 7.52143 17.5091 7.39869 17.4941C7.27594 17.479 7.15808 17.4369 7.05365 17.3707C6.94922 17.3045 6.86083 17.2158 6.7949 17.1112C6.72897 17.0066 6.68714 16.8886 6.67246 16.7658L6.66663 16.6667V14.2275C6.22413 14.6858 5.66996 15 4.99996 15C3.78829 15 2.95663 13.9708 2.47496 12.9292C1.96329 11.8167 1.66663 10.3383 1.66663 8.75C1.66663 7.16167 1.96246 5.68333 2.47496 4.57083C2.93413 3.57583 3.71329 2.59333 4.83746 2.50667L4.99996 2.5H15ZM15 4.16667H7.31829C7.39329 4.3 7.46163 4.435 7.52413 4.57083C8.03746 5.68333 8.33329 7.16167 8.33329 8.75V15.5108L9.73663 15.0425C9.90757 14.9856 10.0924 14.9856 10.2633 15.0425L12.5675 15.8108L14.8633 15.4275C14.9533 15.4125 15.0466 15.4125 15.1366 15.4275L16.6666 15.6833V8.75C16.6666 7.34667 16.4025 6.11667 16.0108 5.26917C15.5875 4.35 15.1691 4.16667 15 4.16667ZM4.99996 4.16667C4.83079 4.16667 4.41246 4.35 3.98913 5.26917C3.59746 6.11667 3.33329 7.34667 3.33329 8.75C3.33329 10.1533 3.59746 11.3833 3.98913 12.2308C4.41246 13.15 4.83079 13.3333 4.99996 13.3333C5.16913 13.3333 5.58746 13.15 6.01079 12.2308C6.40246 11.3833 6.66663 10.1533 6.66663 8.75C6.66663 7.34667 6.40246 6.11667 6.01079 5.26917C5.58746 4.35 5.16913 4.16667 4.99996 4.16667ZM4.99996 7.08333C5.45996 7.08333 5.83329 7.82917 5.83329 8.75C5.83329 9.67083 5.45996 10.4167 4.99996 10.4167C4.53996 10.4167 4.16663 9.67083 4.16663 8.75C4.16663 7.82917 4.53996 7.08333 4.99996 7.08333Z" fill="#101828"/>
</g>
<defs>
<clipPath id="clip0_45_574">
<rect width="20" height="20" fill="white"/>
</clipPath>
</defs>
</svg>

<svg xmlns="http://www.w3.org/2000/svg" width="20" height="20" fill="none"><g clip-path="url(#a)"><path fill="#101828" d="M15 2.5c1.212 0 2.043 1.03 2.525 2.07.476 1.034.765 2.382.804 3.842l.004.338v7.917a.832.832 0 0 1-.866.833l-.104-.012L15 17.095l-2.363.393a.833.833 0 0 1-.302-.005l-.098-.026L10 16.712l-2.237.745a.833.833 0 0 1-1.09-.691l-.006-.1v-2.439C6.224 14.686 5.67 15 5 15c-1.212 0-2.043-1.03-2.525-2.07-.512-1.113-.808-2.592-.808-4.18 0-1.588.295-3.067.808-4.18.46-.994 1.238-1.977 2.362-2.063L5 2.5h10Zm0 1.667H7.318c.075.133.144.268.206.404.513 1.112.81 2.59.81 4.179v6.76l1.403-.467a.834.834 0 0 1 .526 0l2.305.768 2.295-.383a.836.836 0 0 1 .274 0l1.53.255V8.75c0-1.403-.265-2.633-.656-3.48-.423-.92-.842-1.103-1.011-1.103Zm-10 0c-.17 0-.588.183-1.01 1.102-.393.848-.657 2.078-.657 3.481s.264 2.633.656 3.48c.423.92.842 1.103 1.011 1.103.17 0 .587-.183 1.01-1.102.392-.848.657-2.078.657-3.481s-.265-2.633-.656-3.48C5.587 4.35 5.169 4.166 5 4.166Zm0 2.916c.46 0 .833.746.833 1.667 0 .92-.373 1.667-.833 1.667-.46 0-.833-.746-.833-1.667 0-.92.373-1.667.833-1.667Z"/></g><defs><clipPath id="a"><path fill="#fff" d="M0 0h20v20H0z"/></clipPath></defs></svg>
